X:1
T:There's A Long, Long Trail A-Winding
T:There's A Long, Long Trail A-Winding
T:"Zo" Elliot
T:Stoddard King
T:All Rights Reserved
C:Zo Elliot
Z:All Rights Reserved
L:1/4
M:4/4
K:G
V:1 treble 
%%MIDI program 0
V:1
"G" D"Eb7" _E"A7" =E/>F/G/>E/ |"D7" c2"G" B2 |"Em7" E"Gm" G"Gdim" G"D7" A |"G" G3 z | %4
w: Nights are grow- ing ver- y|lone- ly,|Days are ver- y|long;|
w: All night long I hear you|call- ing,|Call- ing sweet and|low;|
"G" D"Eb7" ^D"A7" E/>F/G/>E/ |"D7" c2"G" B2 |"A7" E F G E |"D7" A3 z |"D7" c c c/>B/"Am"A/>c/ | %9
w: I'm a- grow- ing wear- y|on- ly|List- 'ning for your|song.|Old re- mem- bran- ces are|
w: Seems I hear your foot- steps|fall- ing,|Ev- 'ry where I|go.|Tho' the road be- tween us|
"B7" B2"Em" G2 |"A7" E G G A |"D7" d3 z |"G" D"Eb7" ^D"A7" E/>F/G/>E/ | %13
w: throng- ing|Thro' my mem- o-|ry|Till it seems the world is|
w: stretch- es|Man- y~a- wear- y|mile.|I for- get that you're not|
"Am7" c3/2"D7" d/"G" B"Em" G/A/ | B B"A7" ^c A |"D7" d3"G""^CHORUS" D/>G/ | B B"B7" B B | %17
w: full of dreams Just to|call you back to|me. There's a|long, long trail a-|
w: with me yet, When I|think I see you|smile. * *||
"Em" B B"C" z3/4 c/<B/A/4 |"G" G G2"D7" A |"G" B3 B/>B/ |"D7" d-"C" d/c/"D7" d-"C" d/c/ | %21
w: wind- ing in- to the|land of my|dreams, Where the|night- * in- gales * are|
w: ||||
 c"G" B"Cdim" F"Em" G |"A7" B2 A2 |"D7" A3"G" D/>G/ | B B"B7" B B |"Em" B B"C" z3/4 c/<B/A/4 | %26
w: sing- ing And a|white moon|beams. There's a|long, long night of|wait- ing Un- til my|
w: |||||
"G" G G2"D7" A |"G" B3 B/>B/ |"D7" d-"C" d/c/"D7" d-"C" d/c/ | c"G" B"Cdim" F"Em" G | %30
w: dreams all come|true; Till the|day * when I'll * be|go- ing down That|
w: ||||
"A7" B B"G" B/G/"D7" A |"G" G3 z |] %32
w: long, long, tra- il with|you|
w: ||

